public/tokens/EURC.svg

<svg width="40" height="40" viewBox="0 0 40 40" fill="none" xmlns="http://www.w3.org/2000/svg">
<g clip-path="url(#clip0_4004_57038)">
<path d="M20 40C31.0457 40 40 31.0457 40 20C40 8.95431 31.0457 0 20 0C8.95431 0 0 8.95431 0 20C0 31.0457 8.95431 40 20 40Z" fill="#1AA3FF"/>
<path d="M12.8992 20.9175L12.1746 21.8957C12.0032 22.2349 12.2499 22.636 12.6301 22.636H15.0015C15.7513 25.736 17.9107 27.85 20.804 27.8063C22.8581 27.8063 24.4065 26.785 25.4404 24.7514C25.5721 24.4926 25.4567 24.1749 25.1914 24.0564L24.0603 23.5511C23.8113 23.4399 23.5177 23.5441 23.397 23.7887C22.8631 24.8721 21.976 25.5626 20.804 25.5626C19.7429 25.5626 18.8917 25.043 18.2396 23.9931C17.9847 23.5867 17.7819 23.1332 17.6275 22.6363H20.6648C20.8572 22.6363 21.0334 22.5279 21.1203 22.3562L21.8449 21.378C22.0163 21.0385 21.7696 20.6377 21.3894 20.6377H17.2858C17.274 20.4273 17.2668 20.2127 17.2668 19.9915C17.2645 19.7721 17.2707 19.5576 17.2822 19.3461H20.6648C20.8572 19.3461 21.0334 19.2377 21.1203 19.066L21.8449 18.0878C22.0163 17.7486 21.7696 17.3475 21.3894 17.3475H17.6239C18.1746 15.5517 19.3245 14.3752 20.804 14.3985C21.9312 14.3985 22.8065 15.0155 23.3679 16.0265C23.4936 16.2531 23.7768 16.3399 24.0138 16.2351L25.1508 15.7332C25.4228 15.613 25.5385 15.2842 25.3945 15.0239C24.3452 13.1287 22.8149 12.1766 20.804 12.1766C18.969 12.1766 17.499 12.906 16.3827 14.3542C15.7303 15.2071 15.276 16.2077 15.0065 17.3475H13.355C13.1626 17.3475 12.9864 17.4559 12.8995 17.6276L12.1749 18.6057C12.0034 18.9452 12.2502 19.3461 12.6303 19.3461H14.7337C14.7236 19.5584 14.7138 19.7713 14.7138 19.9915C14.711 20.2097 14.7163 20.4248 14.7256 20.6377H13.3553C13.1628 20.6377 12.9861 20.7458 12.8992 20.9175Z" fill="white"/>
<path d="M6.83599 19.1572C7.24775 12.5824 12.5407 7.27287 19.1141 6.84178C22.5696 6.61517 25.7646 7.73142 28.2349 9.71489C28.4746 9.90733 28.8181 9.89864 29.0475 9.69388L30.0164 8.82946C30.3038 8.57315 30.2979 8.11881 30.001 7.87343C27.1195 5.49192 23.3783 4.11517 19.3195 4.28632C11.2696 4.62582 4.71918 11.1009 4.29173 19.1468C4.10686 22.6269 5.0612 25.8799 6.81386 28.5673C7.02366 28.8891 7.47324 28.9449 7.76008 28.6891L8.72786 27.8255C8.95672 27.6213 9.00602 27.2818 8.84215 27.0227C7.41694 24.7678 6.65447 22.0547 6.83599 19.1572Z" fill="white"/>
<path d="M33.1802 11.4323C32.9704 11.1108 32.5208 11.0548 32.2339 11.3105L31.2662 12.1741C31.0373 12.3783 30.988 12.7178 31.1519 12.9769C32.5771 15.2318 33.3395 17.9452 33.1578 20.8427C32.7457 27.4172 27.4527 32.7265 20.8793 33.1576C17.4239 33.3842 14.2292 32.2679 11.7586 30.2844C11.5188 30.092 11.1754 30.1007 10.946 30.3055L9.97736 31.1699C9.68996 31.4262 9.69584 31.8805 9.99276 32.1259C12.8746 34.5077 16.6157 35.8842 20.6748 35.713C28.7247 35.3732 35.2751 28.8979 35.702 20.852C35.8866 17.3721 34.9325 14.1192 33.1802 11.4323Z" fill="white"/>
</g>
<defs>
<clipPath id="clip0_4004_57038">
<rect width="40" height="40" fill="white"/>
</clipPath>
</defs>
</svg>

<svg xmlns="http://www.w3.org/2000/svg" width="40" height="40" fill="none" viewBox="0 0 40 40"><g clip-path="url(#a)"><path fill="#1aa3ff" d="M20 40c11.046 0 20-8.954 20-20S31.046 0 20 0 0 8.954 0 20s8.954 20 20 20"/><path fill="#fff" d="m12.9 20.918-.725.978a.51.51 0 0 0 .455.74h2.371c.75 3.1 2.91 5.214 5.803 5.17 2.054 0 3.603-1.021 4.636-3.055a.51.51 0 0 0-.249-.695l-1.13-.505a.51.51 0 0 0-.664.238c-.534 1.083-1.421 1.774-2.593 1.774-1.061 0-1.912-.52-2.564-1.57a5.8 5.8 0 0 1-.612-1.357h3.037a.51.51 0 0 0 .455-.28l.725-.978a.51.51 0 0 0-.456-.74h-4.103a12 12 0 0 1-.004-1.292h3.383a.51.51 0 0 0 .455-.28l.725-.978a.51.51 0 0 0-.456-.74h-3.765c.55-1.796 1.7-2.973 3.18-2.95 1.127 0 2.003.617 2.564 1.628a.505.505 0 0 0 .646.21l1.137-.503a.51.51 0 0 0 .244-.71c-1.05-1.894-2.58-2.846-4.591-2.846-1.835 0-3.305.729-4.421 2.177-.653.853-1.107 1.854-1.376 2.994h-1.652a.51.51 0 0 0-.456.28l-.724.978a.51.51 0 0 0 .455.74h2.104a13 13 0 0 0-.008 1.292h-1.37a.51.51 0 0 0-.457.28"/><path fill="#fff" d="M6.836 19.157c.412-6.575 5.705-11.884 12.278-12.315 3.456-.227 6.65.89 9.12 2.873a.63.63 0 0 0 .813-.021l.97-.865A.63.63 0 0 0 30 7.873a15.66 15.66 0 0 0-10.68-3.587c-8.05.34-14.6 6.815-15.028 14.86a15.65 15.65 0 0 0 2.522 9.421.63.63 0 0 0 .946.122l.968-.863a.63.63 0 0 0 .114-.803 13.1 13.1 0 0 1-2.006-7.866m26.344-7.725a.63.63 0 0 0-.946-.122l-.968.864a.63.63 0 0 0-.114.803 13.1 13.1 0 0 1 2.006 7.866c-.412 6.574-5.705 11.884-12.279 12.315-3.455.226-6.65-.89-9.12-2.874a.63.63 0 0 0-.813.021l-.969.865a.63.63 0 0 0 .016.956 15.66 15.66 0 0 0 10.682 3.587c8.05-.34 14.6-6.815 15.027-14.861a15.65 15.65 0 0 0-2.522-9.42"/></g><defs><clipPath id="a"><path fill="#fff" d="M0 0h40v40H0z"/></clipPath></defs></svg>
